web/src/assets/svgs/logo.svg

<?xml version="1.0" encoding="UTF-8" standalone="no"?>
<svg
   width="29.399708"
   height="31.728247"
   style="display:block"
   version="1.1"
   id="svg4"
   sodipodi:docname="logo.svg"
   inkscape:version="1.1 (c4e8f9e, 2021-05-24)"
   xmlns:inkscape="http://www.inkscape.org/namespaces/inkscape"
   xmlns:sodipodi="http://sodipodi.sourceforge.net/DTD/sodipodi-0.dtd"
   xmlns="http://www.w3.org/2000/svg"
   xmlns:svg="http://www.w3.org/2000/svg">
  <defs
     id="defs8" />
  <sodipodi:namedview
     id="namedview6"
     pagecolor="#ffffff"
     bordercolor="#666666"
     borderopacity="1.0"
     inkscape:pageshadow="2"
     inkscape:pageopacity="0.0"
     inkscape:pagecheckerboard="0"
     showgrid="false"
     fit-margin-top="0"
     fit-margin-left="0"
     fit-margin-right="0"
     fit-margin-bottom="0"
     inkscape:zoom="27.28125"
     inkscape:cx="0"
     inkscape:cy="16.329897"
     inkscape:window-width="2005"
     inkscape:window-height="1081"
     inkscape:window-x="0"
     inkscape:window-y="23"
     inkscape:window-maximized="0"
     inkscape:current-layer="svg4" />
  <path
     d="M 28.992749,22.493538 C 28.834214,22.107109 28.685588,21.700864 28.527053,21.354069 L 27.79383,19.699362 27.7641,19.669632 C 25.584252,14.913594 23.255772,10.078283 20.788575,5.322239 L 20.68949,5.1240705 C 20.44178,4.6583746 20.194069,4.1431366 19.93645,3.6675323 19.619381,3.1027522 19.31222,2.4983383 18.80689,1.9236498 a 5.2514644,5.2514644 0 0 0 -8.124907,0 C 10.216287,2.4983383 9.8694921,3.1027522 9.5524231,3.6675323 9.3047122,4.1827703 9.0570016,4.6880999 8.7993826,5.1537958 L 8.7002984,5.3519643 C 6.2727346,10.108009 3.9046214,14.943319 1.7247683,19.699362 l -0.059451,0.05945 c -0.2179849,0.515239 -0.4756039,1.050294 -0.72331451,1.624982 -0.1585348,0.346795 -0.31706966,0.723315 -0.47560442,1.139469 a 6.737728,6.737728 0 0 0 7.13406503,9.145475 8.3032589,8.3032589 0 0 0 3.1508786,-1.089927 c 1.288095,-0.723314 2.526648,-1.773607 3.913827,-3.289596 1.387179,1.515989 2.655457,2.566282 3.913827,3.299505 a 8.3032589,8.3032589 0 0 0 3.983186,1.139469 6.7278195,6.7278195 0 0 0 6.688186,-5.776611 5.8856035,5.8856035 0 0 0 -0.257619,-3.467949 z m -14.228496,1.644798 c -1.704249,-2.179853 -2.813992,-4.181355 -3.190512,-5.895512 a 5.1523802,5.1523802 0 0 1 -0.09908,-1.942051 c 0.06936,-0.505329 0.257619,-0.951208 0.515238,-1.327729 0.594505,-0.862032 1.634889,-1.397087 2.774358,-1.397087 a 3.2697797,3.2697797 0 0 1 2.774359,1.387179 c 0.257619,0.396337 0.445879,0.832308 0.505329,1.337637 0.09909,0.574689 0.05945,1.238553 -0.09908,1.942051 -0.37652,1.684432 -1.486263,3.705751 -3.180604,5.895512 z m 12.623332,1.466447 a 4.7164096,4.7164096 0 0 1 -2.873443,3.715659 c -0.75304,0.317069 -1.585348,0.406245 -2.397839,0.317069 -0.792674,-0.09908 -1.585347,-0.356703 -2.397838,-0.832307 a 15.496774,15.496774 0 0 1 -3.596758,-3.071612 c 2.080769,-2.57619 3.339139,-4.924486 3.814743,-7.015163 0.227894,-0.990843 0.257619,-1.882601 0.158535,-2.705 a 5.4793582,5.4793582 0 0 0 -0.852124,-2.179853 5.310915,5.310915 0 0 0 -4.448883,-2.259121 c -1.833058,0 -3.467948,0.852125 -4.45879,2.249212 a 5.1325634,5.1325634 0 0 0 -0.8422158,2.189762 c -0.1288095,0.832307 -0.099084,1.753791 0.1585345,2.705 0.4756043,2.090677 1.7636993,4.468699 3.8147433,7.03498 A 14.198771,14.198771 0 0 1 9.8694921,28.844837 C 9.0470932,29.320442 8.2643277,29.568152 7.4716539,29.667236 A 4.7164096,4.7164096 0 0 1 2.2003726,25.634508 C 2.1012886,24.841834 2.1706476,24.04916 2.4877169,23.157402 2.5868009,22.840333 2.7354274,22.523263 2.8939622,22.146743 3.1119475,21.631505 3.3695665,21.09645 3.6172771,20.561395 l 0.039634,-0.06936 C 5.7971303,15.765718 8.1355182,10.940316 10.563082,6.2139971 l 0.09908,-0.1981684 c 0.24771,-0.4756044 0.495421,-0.980934 0.75304,-1.4565383 0.257619,-0.5053296 0.535055,-0.9908423 0.891758,-1.3871793 a 3.2895966,3.2895966 0 0 1 5.043388,0 c 0.346794,0.396337 0.634139,0.8818497 0.891758,1.3871793 0.24771,0.4756043 0.495421,0.9908423 0.75304,1.4565383 l 0.09908,0.1981684 c 2.417656,4.7263189 4.756043,9.5517209 6.935897,14.2780389 l 0.02972,0.02973 c 0.257619,0.515238 0.475604,1.089926 0.723315,1.585347 0.158535,0.386429 0.317069,0.69359 0.416154,1.020568 0.18826,0.891758 0.287344,1.684432 0.18826,2.477106 z"
     id="path2"
     style="fill:#00a6de;fill-opacity:1;stroke-width:0.990842" />
</svg>

<?xml version="1.0" encoding="UTF-8"?>
<svg display="block" version="1.1" viewBox="0 0 29.4 31.728" xmlns="http://www.w3.org/2000/svg">
<path d="m28.993 22.494c-0.15854-0.38643-0.30716-0.79267-0.4657-1.1395l-0.73322-1.6547-0.02973-0.02973c-2.1798-4.756-4.5083-9.5913-6.9755-14.347l-0.099085-0.19817c-0.24771-0.4657-0.49542-0.98093-0.75304-1.4565-0.31707-0.56478-0.62423-1.1692-1.1296-1.7439a5.2515 5.2515 0 0 0-8.1249 0c-0.4657 0.57469-0.81249 1.1791-1.1296 1.7439-0.24771 0.51524-0.49542 1.0206-0.75304 1.4863l-0.099084 0.19817c-2.4276 4.756-4.7957 9.5914-6.9755 14.347l-0.059451 0.05945c-0.21798 0.51524-0.4756 1.0503-0.72331 1.625-0.15853 0.3468-0.31707 0.72332-0.4756 1.1395a6.7377 6.7377 0 0 0 7.1341 9.1455 8.3033 8.3033 0 0 0 3.1509-1.0899c1.2881-0.72331 2.5266-1.7736 3.9138-3.2896 1.3872 1.516 2.6555 2.5663 3.9138 3.2995a8.3033 8.3033 0 0 0 3.9832 1.1395 6.7278 6.7278 0 0 0 6.6882-5.7766 5.8856 5.8856 0 0 0-0.25762-3.4679zm-14.228 1.6448c-1.7042-2.1799-2.814-4.1814-3.1905-5.8955a5.1524 5.1524 0 0 1-0.09908-1.9421c0.06936-0.50533 0.25762-0.95121 0.51524-1.3277 0.5945-0.86203 1.6349-1.3971 2.7744-1.3971a3.2698 3.2698 0 0 1 2.7744 1.3872c0.25762 0.39634 0.44588 0.83231 0.50533 1.3376 0.09909 0.57469 0.05945 1.2386-0.09908 1.9421-0.37652 1.6844-1.4863 3.7058-3.1806 5.8955zm12.623 1.4664a4.7164 4.7164 0 0 1-2.8734 3.7157c-0.75304 0.31707-1.5853 0.40624-2.3978 0.31707-0.79267-0.09908-1.5853-0.3567-2.3978-0.83231a15.497 15.497 0 0 1-3.5968-3.0716c2.0808-2.5762 3.3391-4.9245 3.8147-7.0152 0.22789-0.99084 0.25762-1.8826 0.15854-2.705a5.4794 5.4794 0 0 0-0.85212-2.1799 5.3109 5.3109 0 0 0-4.4489-2.2591c-1.8331 0-3.4679 0.85212-4.4588 2.2492a5.1326 5.1326 0 0 0-0.84222 2.1898c-0.12881 0.83231-0.099084 1.7538 0.15853 2.705 0.4756 2.0907 1.7637 4.4687 3.8147 7.035a14.199 14.199 0 0 1-3.5968 3.0914c-0.8224 0.4756-1.6052 0.72332-2.3978 0.8224a4.7164 4.7164 0 0 1-5.2713-4.0327c-0.099084-0.79267-0.029725-1.5853 0.28734-2.4771 0.099084-0.31707 0.24771-0.63414 0.40625-1.0107 0.21799-0.51524 0.4756-1.0503 0.72331-1.5853l0.039634-0.06936c2.1402-4.7263 4.4786-9.5517 6.9062-14.278l0.09908-0.19817c0.24771-0.4756 0.49542-0.98093 0.75304-1.4565 0.25762-0.50533 0.53506-0.99084 0.89176-1.3872a3.2896 3.2896 0 0 1 5.0434 0c0.34679 0.39634 0.63414 0.88185 0.89176 1.3872 0.24771 0.4756 0.49542 0.99084 0.75304 1.4565l0.09908 0.19817c2.4177 4.7263 4.756 9.5517 6.9359 14.278l0.02972 0.02973c0.25762 0.51524 0.4756 1.0899 0.72332 1.5853 0.15854 0.38643 0.31707 0.69359 0.41615 1.0206 0.18826 0.89176 0.28734 1.6844 0.18826 2.4771z" fill="#00a6de" stroke-width=".99084"/>
</svg>
